!!!!SEGMENT: pl-kk--kk-i-201--002_anonim--jesu-corona-celsior.krn
!!!cenid: 16xx:756
!!!COM: Anonim
!!!COM-rismID: pe30004985
!!!CDT:
!!!CNT:
!!!OTL: Jesu corona celsior
!!!PDT:
!!!AGN: Sacred
!!!SMS-siglum: PL-Kk
!!!SMS-shelfmark: Kk.I.201
!!!SMS-shelfwork: 002 W
!!!SMS-variant:
!!!SMS-altvar:
!!!NIFC-rismSourceID: 1001151123
!!!NIFC-rismChildID: 1001143742
!!!NIFC-islandoraID: pl-kk:21943
!!!URL-pdf-islandora: https://repozytorium.nifc.pl/islandora/object/pl-kk%3A21943/datastream/PDF/view
!!!URL-scan:
!!!ONB-nifc: UWAGA: utwory w zbiorze: 1. Jesu Redemptor omnium, 2. Jesu corona celsior, 3. Virginis protes, 4. Virginis partum canimus, 5. Fortem virili pectore
!!!AIN: 1 empty
!!!key:
**kern	**text	**text	**text	**text	**text
*Iempty	*	*	*	*	*
*I"Baſso Ripieno.	*	*	*	*	*
*I'B rip	*	*	*	*	*
*clefF4	*	*	*	*	*
*k[]	*	*	*	*	*
*d:	*	*	*	*	*
*M3/2	*	*	*	*	*
=1	=1	=1	=1	=1	=1
2D/	1._JE-	2._Da	3._An-	4._Te	5._Pro-
2D/	-SU	sup-	-ni	X-	-in-
2C#X/	Co-	-pli-	re-	-te	-de
=2	=2	=2	=2	=2	=2
1D\	-ro-	-can-	-ver-	rex	Te
2GG/	-na	-ti	-ſo	pi-	pi-
=3	=3	=3	=3	=3	=3
2.AA/	cel-	coe-	tem-	-iſ-	-iſ-
4AA/	-ſi-	-tu-	-po-	-si-	-si-
2AA/	-or	-i	-re	-me	-me
=4	=4	=4	=4	=4	=4
*2\right	*	*	*	*	*
2G#X\	et	hu-	di-	hic	pre-
2G#\	Ve-	-jus	-es	con-	-ca-
2G#\	-ri-	ro-	re-	-fi-	-nur
=5	=5	=5	=5	=5	=5
!LO:TX:t=P:global:problem=rozdzielacze słów / znak oddechu na 1-5 linii	!	!	!	!	!
2A,<\	-tas	-ga-	-ful-	-ten-	/pre-
2.A\	Ve-	-tu	-sit	.	-ca-
4G\	-ri-	/ro-	re-	.	.
=6	=6	=6	=6	=6	=6
4F\	.	.	-ful-	.	-mur/
4E\	.	.	.	.	.
2.D\	-tas	-ga/-	-sit	.	om-
*custos:BBn	*	*	*	*	*
4C\	.	.	re-	-[[do]]-	-nes
!LO:LB:g=original	!	!	!	!	!
=7	=7	=7	=7	=7	=7
1BBn/	.	.	-ful-	.	om-
2C/	sub-	-tu	-ſit	-do	-nes
=8	=8	=8	=8	=8	=8
2D\	-li-	no-	Lu-	ju-	Sup-
2.E\	.	.	.	.	.
4E\	-mi-	-xi-	-mi-	-gi-	-pli-
=9-	=9	=9	=9	=9	=9
!LO:TX:t=P:problem=kreska taktowa podwójna lub początek repetycji	!	!	!	!	!
1.AA/	-or:	-i	-ne	-ter	-ces
=10||	=10||	=10||	=10||	=10||	=10||
2C/	Qui	re-	quo	Cal-	no-
4C/	con-	-miſ-	San-	-ca-	-bis
4BB/	.	.	.	.	.
2AA/	-fit-	-si-	-ct(us)	-vit	ut
=11	=11	=11	=11	=11	=11
2.GG/	-en-	-o-	hic	ar-	hu-
4AA/	.	.	.	.	.
2BB-X/	.	.	de	.	-jus
=12	=12	=12	=12	=12	=12
2C/	-ti	-nem	Cor-	-tes	gra-
2.D\	ser-	cri-	.	dae-	.
4D\	-vu-	-mi-	-po-	-mo-	-ti-
=13	=13	=13	=13	=13	=13
1GG/,	-lo	-nis	-re	-nu(m)	-a
2G\	red-	rum-	mi-	Sae-	poe-
=14	=14	=14	=14	=14	=14
2.G\	-dis	-pen-	-gra-	-vum-	-nas
4En\	.	.	.	-q(ue)	.
2D\	pe-	-do	-vit	A-	re-
=15	=15	=15	=15	=15	=15
4AA/	-ren-	ne-	in-	-ver-	-mit-
4BB/	-ne	-xum	-ter	-ni	-tas
2.C/	prae-	vin-	si-	Prin-	de-
4C/	-mi-	-cu-	-de-	-ci-	-bi-
=16	=16	=16	=16	=16	=16
1F\,<	-um	-li	-ra	-pem	-tas
2F\	red-	/rum-	mi-	/Sae-	/poe-
=17	=17	=17	=17	=17	=17
2.A\	-dis	-pen-	-gra-	-vumque	-nas
4A\	pe-	-do	-vit	A-	re-
2E\	-ren-	ne-	in-	-ver-	-mit-
=18	=18	=18	=18	=18	=18
2F\	-ne	-xum	-ter	-ni	-tas
2.A\	p(rae)-	vin-	ſi-	Prin-	de-
4AA/	-mi-	-cu-	-de-	-ci-	-bi-
=19	=19	=19	=19	=19	=19
!LO:TX:t=P:problem=łuk nad nutą [przyjęto fermatę]	!	!	!	!	!
!LO:N:vis=0	!	!	!	!	!
1.D\;	-u(m)	-li/	-ra	-pem/	-tas/
==	==	==	==	==	==
*-	*-	*-	*-	*-	*-
!!!RDF**kern: > = above
!!!RDF**kern: < = below
!!!EED: Leszek Kubiak
!!!EEV: 2021-02-18
!!!ENC: Andrzej Kubiczek
!!!END: 2021-02-12
!!!YEC: Copyright 2022 Narodowy Instytut Fryderyka Chopina (https://polishscores.org)
!!!YEM: License CC-BY-4.0 (https://creativecommons.org/licenses/by/4.0)
